X: 17837
T: Hopstores, The
R: barndance
M: 4/4
K: Gmajor
|:DGBG DAcA|DGBG FGAF|DGBG DAce|dBgB A/B/A G2:|
Bddd .e/.f/g dc|BddG ABcA|Bdgd .e/.f/g dc|BddB A/B/AG2|
Bdgd .e/.f/g dc|BddG ABcA|gefd .e/.f/g dc|BddB A/B/AG2||

